places/48/bookmark-missing.svg

<?xml version="1.0" encoding="UTF-8" standalone="no"?>
<svg
   xmlns:dc="http://purl.org/dc/elements/1.1/"
   xmlns:cc="http://creativecommons.org/ns#"
   xmlns:rdf="http://www.w3.org/1999/02/22-rdf-syntax-ns#"
   xmlns:svg="http://www.w3.org/2000/svg"
   xmlns="http://www.w3.org/2000/svg"
   xmlns:xlink="http://www.w3.org/1999/xlink"
   version="1.1"
   width="48"
   height="48"
   id="svg3005">
  <defs
     id="defs3007">
    <linearGradient
       x1="11.566265"
       y1="22.292103"
       x2="15.214532"
       y2="33.95525"
       id="linearGradient3619-875"
       xlink:href="#linearGradient8265-821-176-38-919-66-249-517"
       gradientUnits="userSpaceOnUse"
       gradientTransform="translate(2.9799125,-3.1216548)" />
    <linearGradient
       id="linearGradient8265-821-176-38-919-66-249-517">
      <stop
         id="stop2896"
         style="stop-color:#ffffff;stop-opacity:0.27450982"
         offset="0" />
      <stop
         id="stop2898"
         style="stop-color:#ffffff;stop-opacity:0"
         offset="1" />
    </linearGradient>
    <linearGradient
       x1="29.646643"
       y1="2"
       x2="29.646643"
       y2="43.443626"
       id="linearGradient3648-139"
       xlink:href="#linearGradient3642-252"
       gradientUnits="userSpaceOnUse" />
    <linearGradient
       id="linearGradient3642-252">
      <stop
         id="stop2890"
         style="stop-color:#ffffff;stop-opacity:1"
         offset="0" />
      <stop
         id="stop2892"
         style="stop-color:#ffffff;stop-opacity:0"
         offset="1" />
    </linearGradient>
    <radialGradient
       cx="13.138569"
       cy="25.625349"
       r="13.931416"
       fx="13.138569"
       fy="25.625349"
       id="radialGradient3627-206"
       xlink:href="#linearGradient3690-708"
       gradientUnits="userSpaceOnUse"
       gradientTransform="matrix(0,2.6540647,-3.1628087,0,97.182609,-26.675837)" />
    <linearGradient
       id="linearGradient3690-708">
      <stop
         id="stop2874"
         style="stop-color:#e8e8e8;stop-opacity:1"
         offset="0" />
      <stop
         id="stop2876"
         style="stop-color:#d8d8d8;stop-opacity:1"
         offset="0.26238" />
      <stop
         id="stop2878"
         style="stop-color:#c2c2c2;stop-opacity:1"
         offset="0.66093999" />
      <stop
         id="stop2880"
         style="stop-color:#a5a5a5;stop-opacity:1"
         offset="1" />
    </linearGradient>
    <linearGradient
       x1="21.483376"
       y1="36.255058"
       x2="21.483376"
       y2="9.5799999"
       id="linearGradient3629-730"
       xlink:href="#linearGradient3603-635"
       gradientUnits="userSpaceOnUse"
       gradientTransform="matrix(1.6508808,0,0,1.6568311,-11.466494,-15.045759)" />
    <linearGradient
       id="linearGradient3603-635">
      <stop
         id="stop2884"
         style="stop-color:#707070;stop-opacity:1"
         offset="0" />
      <stop
         id="stop2886"
         style="stop-color:#9e9e9e;stop-opacity:1"
         offset="1" />
    </linearGradient>
    <linearGradient
       id="linearGradient8838-894">
      <stop
         id="stop2868"
         style="stop-color:#000000;stop-opacity:1"
         offset="0" />
      <stop
         id="stop2870"
         style="stop-color:#000000;stop-opacity:0"
         offset="1" />
    </linearGradient>
    <radialGradient
       cx="62.625"
       cy="4.625"
       r="10.625"
       fx="62.625"
       fy="4.625"
       id="radialGradient3003"
       xlink:href="#linearGradient8838-894"
       gradientUnits="userSpaceOnUse"
       gradientTransform="matrix(2.1647059,0,0,0.84705771,-111.56471,35.082353)" />
  </defs>
  <metadata
     id="metadata3010">
    <rdf:RDF>
      <cc:Work
         rdf:about="">
        <dc:format>image/svg+xml</dc:format>
        <dc:type
           rdf:resource="http://purl.org/dc/dcmitype/StillImage" />
        <dc:title />
      </cc:Work>
    </rdf:RDF>
  </metadata>
  <g
     id="layer1">
    <path
       d="m 47,39 c 0,4.970563 -10.297453,9 -23,9 -12.702548,0 -23,-4.029437 -23,-9 0,-4.970563 10.297452,-9 23,-9 12.702547,0 23,4.029437 23,9 l 0,0 z"
       id="path8836"
       style="opacity:0.3;fill:url(#radialGradient3003);fill-opacity:1;fill-rule:evenodd;stroke:none;stroke-width:0.99999988;marker:none;visibility:visible;display:inline;overflow:visible" />
    <path
       d="m 23.999999,1.4961347 c 1.518797,0 6.415369,12.2754723 7.644103,13.1714173 1.228732,0.895944 14.374596,1.776317 14.843931,3.225986 0.469334,1.449669 -9.650283,9.916699 -10.119617,11.366368 -0.469334,1.449669 2.758685,14.269241 1.529951,15.165186 -1.228733,0.895944 -12.379571,-6.146615 -13.89837,-6.146615 -1.518797,0 -12.669635,7.042559 -13.898369,6.146615 C 8.8728956,43.529147 12.100914,30.709574 11.63158,29.259906 11.162246,27.810237 1.0426298,19.343205 1.5119642,17.893536 1.9812985,16.443869 15.127162,15.563496 16.355896,14.667552 17.584628,13.771607 22.481202,1.4961347 23.999999,1.4961347 z"
       id="path1307"
       style="fill:url(#radialGradient3627-206);fill-opacity:1;fill-rule:nonzero;stroke:url(#linearGradient3629-730);stroke-width:0.9922713;stroke-linecap:butt;stroke-linejoin:round;stroke-miterlimit:4;stroke-opacity:1;stroke-dasharray:none;stroke-dashoffset:0;marker:none;visibility:visible;display:inline;overflow:visible" />
    <path
       d="m 36.457966,42.854576 c 0,0 -4.318414,-3.742625 -10.076299,-4.894202"
       id="path11014"
       style="opacity:0.3;fill:none;stroke:#ffffff;stroke-width:1;stroke-linecap:butt;stroke-linejoin:miter;stroke-miterlimit:4;stroke-opacity:1;stroke-dasharray:none;display:inline" />
    <path
       d="m 11.175618,42.854576 c 0,0 4.318413,-3.742625 10.076298,-4.894202"
       id="path11985"
       style="opacity:0.3;fill:none;stroke:#ffffff;stroke-width:1;stroke-linecap:butt;stroke-linejoin:miter;stroke-miterlimit:4;stroke-opacity:1;stroke-dasharray:none;display:inline" />
    <path
       d="m 24,2.5 c 2.255601,4.3171106 4.478429,8.952433 6.73403,13.269542 4.843973,0.789864 10.26201,1.380836 14.771263,2.50542 -3.449934,3.457984 -6.875961,7.131147 -10.325895,10.589132 0.738138,4.805274 1.213021,9.259541 1.95116,14.064815 C 32.742781,40.748952 28.355003,38.568994 23.967226,36.389035 19.579447,38.568994 15.19167,40.748952 10.803892,42.928909 11.542029,38.123635 11.929163,33.581617 12.6673,28.776343 9.2173666,25.318358 5.9355586,21.692246 2.4856257,18.234262 7.329597,17.444398 12.356449,16.559406 17.20042,15.769542 19.456021,11.452433 21.744398,6.8171106 24,2.5 z"
       id="path1309"
       style="opacity:0.4;fill:none;stroke:url(#linearGradient3648-139);stroke-width:0.99999994;stroke-linecap:butt;stroke-linejoin:round;stroke-miterlimit:4;stroke-opacity:1;stroke-dasharray:none;stroke-dashoffset:0;marker:none;visibility:visible;display:inline;overflow:visible" />
    <path
       d="m 24.023909,2.0218291 c 0,0 4.502337,7.4701031 7.020932,13.3173589 4.843973,0.789864 10.309827,1.404745 14.914715,2.720597 0,0 -2.463879,2.468624 -3.480641,3.487759 0,0 -31.782299,5.712288 -31.782299,5.712288 C 7.7999341,24.283482 4.5120994,21.39468 1.9615429,18.048297 5.5144527,16.97153 12.093455,16.105144 16.937426,15.31528 20.29282,7.4118887 24.023909,2.0218291 24.023909,2.0218291 z"
       id="path3382"
       style="opacity:0.8;fill:url(#linearGradient3619-875);fill-opacity:1;fill-rule:nonzero;stroke:none;stroke-width:1;marker:none;visibility:visible;display:inline;overflow:visible;enable-background:accumulate" />
  </g>
</svg>

<svg xmlns="http://www.w3.org/2000/svg" xmlns:xlink="http://www.w3.org/1999/xlink" viewBox="0 0 48 48"><defs><linearGradient x1="11.566" y1="22.292" x2="15.215" y2="33.955" id="j" xlink:href="#a" gradientUnits="userSpaceOnUse" gradientTransform="translate(2.98 -3.122)"/><linearGradient id="a"><stop offset="0" stop-color="#fff" stop-opacity=".275"/><stop offset="1" stop-color="#fff" stop-opacity="0"/></linearGradient><linearGradient x1="29.647" y1="2" x2="29.647" y2="43.444" id="i" xlink:href="#b" gradientUnits="userSpaceOnUse"/><linearGradient id="b"><stop offset="0" stop-color="#fff"/><stop offset="1" stop-color="#fff" stop-opacity="0"/></linearGradient><radialGradient cx="13.139" cy="25.625" r="13.931" fx="13.139" fy="25.625" id="g" xlink:href="#c" gradientUnits="userSpaceOnUse" gradientTransform="matrix(0 2.65406 -3.1628 0 97.183 -26.676)"/><linearGradient id="c"><stop offset="0" stop-color="#e8e8e8"/><stop offset=".262" stop-color="#d8d8d8"/><stop offset=".661" stop-color="#c2c2c2"/><stop offset="1" stop-color="#a5a5a5"/></linearGradient><linearGradient x1="21.483" y1="36.255" x2="21.483" y2="9.58" id="h" xlink:href="#d" gradientUnits="userSpaceOnUse" gradientTransform="matrix(1.65088 0 0 1.65683 -11.466 -15.046)"/><linearGradient id="d"><stop offset="0" stop-color="#707070"/><stop offset="1" stop-color="#9e9e9e"/></linearGradient><linearGradient id="e"><stop offset="0"/><stop offset="1" stop-opacity="0"/></linearGradient><radialGradient cx="62.625" cy="4.625" r="10.625" fx="62.625" fy="4.625" id="f" xlink:href="#e" gradientUnits="userSpaceOnUse" gradientTransform="matrix(2.1647 0 0 .84706 -111.565 35.082)"/></defs><path d="M47 39c0 4.97-10.297 9-23 9S1 43.97 1 39s10.297-9 23-9 23 4.03 23 9z" opacity=".3" fill="url(#f)" fill-rule="evenodd" overflow="visible"/><path d="M24 1.496c1.52 0 6.415 12.276 7.644 13.172 1.23.895 14.375 1.776 14.844 3.226.47 1.45-9.65 9.916-10.12 11.366-.47 1.45 2.76 14.27 1.53 15.165-1.228.896-12.38-6.147-13.898-6.147-1.52 0-12.67 7.043-13.898 6.147-1.23-.896 2-13.715 1.53-15.165-.47-1.45-10.59-9.917-10.12-11.366.47-1.45 13.615-2.33 14.844-3.226C17.586 13.772 22.48 1.496 24 1.496z" fill="url(#g)" stroke="url(#h)" stroke-width=".992" stroke-linejoin="round" overflow="visible"/><path d="M36.458 42.855s-4.318-3.743-10.076-4.895m-15.206 4.895s4.318-3.743 10.076-4.895" opacity=".3" fill="none" stroke="#fff"/><path d="M24 2.5c2.256 4.317 4.478 8.952 6.734 13.27 4.844.79 10.262 1.38 14.77 2.505-3.45 3.458-6.875 7.13-10.325 10.59.736 4.804 1.21 9.26 1.95 14.064l-13.165-6.54-13.163 6.54c.738-4.808 1.125-9.35 1.863-14.156-3.45-3.458-6.73-7.084-10.18-10.542 4.843-.79 9.87-1.675 14.713-2.464 2.255-4.32 4.543-8.954 6.8-13.27z" opacity=".4" fill="none" stroke="url(#i)" stroke-linejoin="round" overflow="visible"/><path d="M24.024 2.022s4.502 7.47 7.02 13.317c4.845.79 10.31 1.402 14.916 2.72 0 0-2.464 2.466-3.48 3.486L10.696 27.26C7.8 24.283 4.51 21.395 1.96 18.048c3.553-1.076 10.13-1.943 14.976-2.733 3.356-7.903 7.087-13.293 7.087-13.293z" opacity=".8" fill="url(#j)" overflow="visible"/></svg>
